X:12
T:The Proton Beam
R:jig
C:Paul S. Cranford
O:Cape Breton Island
S:http://www.cranfordpub.com
D:currently unrecorded
B:currently unpublished in book form
Z:psc
H:                                                        copyrights Cranford Publications, SOCAN
L:1/8
Q:300
M:6/8
K:A
z|A,2 A ceA|BAB cAF|Eaf eAc|BGE DCB,|
A,2 A ceA|BAB cAF|Eaf eAd|cGB A2:|
|:A|G2 B BdB|Aaf ecA|GAB BdB|cGB A2 A|
G2 B BdB|Aaf eaf|eaf eAd|cGB A2:|
